X:1
T:6 Lieder für gemischten Chor
T:Alles zur Ruh
T:Franz Abt
T:Marie Clausnitzer-Hennes
T:Alles zur Ruh
T:Abendlied, Op. 420, Heft 1, No. 2
T:CPDL   —   Creative Commons Attribution Non Commercial 3.0
T:CPDL   —   Creative Commons Attribution Non Commercial 3.0
T:CPDL   —   Creative Commons Attribution Non Commercial 3.0
C:Franz Abt
Z:Marie Clausnitzer-Hennes
Z:CPDL   —   Creative Commons Attribution Non Commercial 3.0
%%score [ ( 1 2 ) 3 4 ]
L:1/8
Q:1/4=80
M:6/8
K:A
V:1 treble nm="Sopran\nAlt"
V:2 treble 
V:3 treble-8 nm="Tenor"
V:4 bass nm="Bass"
V:1
!p!"^Andante sostenuto" !>!c3 G2 A |"^ten." F6 |!mf!!>(! d3 B2!>)!!pp! G | !fermata!c6 | %4
w: 1\-3. Al- les zur|Ruh!|al- les zur|Ruh!|
w: ||||
w: ||||
!<(! (.c.c.c)!<)! e>dc | c3 B3 | BcB B>AB | A2 G!<(! G>FE!<)! | e3!>(! c2 A!>)! | F3!p! F>=GF | %10
w: 1.   Ü- ber den Ber- gen den|blau- en,|ist noch ein Gold- glanz zu|schau- en, Son- ne rief|schei- dend dir|zu, Son- ne rief|
w: 2. Blum- en auf tau- i- gen|Wie- sen|mü- de die Äug- lein nun|schlie- ßen, Vög- lein sich|sin- gen zur|Ruh, Vög- lein sich|
w: 3. Dich auch zur Ru- he be-|rei- te,|hörst du das A- bend- ge-|läu- te, gib du dein|A- men da-|zu, gib du dein|
!<(! (F2 f)!<)! d2 B |"^dim. al" (G3!pp! d3) | (!>!c3 =c2 B) | e3 !>!e>cA | (E3"^dim." G2)!pp! B | %15
w: schei- * dend dir|zu: _|1\-3. schlumm- re auch|du, schlumm- re auch|du. _ auch|
w: sin- * gen zur|Ruh: _|_ _ _|||
w: A- * men da-|zu: _|_ _ _|||
 !fermata!A6 |] %16
w: du.|
w: |
w: |
V:2
 [CE]3 [DE]2 E | D6 | [DF]3 [DF]2 F | ^E6 | [=EF][EF][EF] [EF]>[EF][EF] | [DF]3 [DF]3 | %6
w: ||||||
 [DE]E[DE] [CE]>[CE]^D | F2 E E>EE | E3 E2 ^E | F3 =E>EE | (D2 F) F2 F | (E3 G3) | A3 F2 E | %13
w: |||||||
 E3 z2 z | E3 D2 D | C6 |] %16
w: |schlumm- re auch|du.|
V:3
!p! !>![EA]3 E2 A |"^ten." A6 |!mf!!>(! [FB]3 B2!>)!!pp! B | !fermata!G6 |!<(! (.^A.A.A)!<)! A>GA | %5
w: 1\-3. Al- les zur|Ruh!|al- les zur|Ruh!|1.   Ü- ber den Ber- gen den|
w: ||||2. Blum- en auf tau- i- gen|
w: ||||3. Dich auch zur Ru- he be-|
 (BF)B d>BA | G3 A2 F | B2 B!<(! B>AG!<)! | A3!>(! A2 c!>)! | (d2 A)!p! ^A>AA | %10
w: blau- en, ist noch _ ein|Gold- glanz zu|schau- en, Son- ne rief|schei- dend dir|zu, _ Son- ne rief|
w: Wie- * sen mü- de die|Äug- lein nun|schlie- ßen, Vög- lein sich|sin- gen zur|Ruh, _ Vög- lein sich|
w: rei- te, hörst du _ das|A- bend- ge-|läu- te, gib du dein|A- men da-|zu, _ gib du dein|
!<(! (B2 d)!<)! B2 B |"^dim. al" (B3!pp! e3) | (!>!e3 ^d2 =d) | c3 z2 z | %14
w: schei- * dend dir|zu: _|1\-3. schlumm- re auch|du,|
w: sin- * gen zur|Ruh: _|_ _ _||
w: A- * men da-|zu: _|_ _ _||
 (c2 =c)"^dim." B2!pp! [EG] | !fermata![EA]6 |] %16
w: schlumm- * re auch|du.|
w: ||
w: ||
V:4
!p! !>!A,,3 B,,2 C, |"^ten." D,6 |!mf!!>(! B,,3 B,,2!>)!!pp! D, | !fermata!C,6 | %4
w: 1\-3. Al- les zur|Ruh!|al- les zur|Ruh!|
w: ||||
w: ||||
!<(! (.F,.F,.F,)!<)! F,>F,F, | B,,3 B,,3 | E,E,E, E,E,E, | E,2 E,!<(! =D,>D,D,!<)! | %8
w: 1.   Ü- ber den Ber- gen den|blau- en,|ist noch ein Gold- glanz zu|schau- en, Son- ne rief|
w: 2. Blum- en auf tau- i- gen|Wie- sen|mü- de die Äug- lein nun|schlie- ßen, Vög- lein sich|
w: 3. Dich auch zur Ru- he be-|rei- te,|hörst du das A- bend- ge-|läu- te, gib du dein|
 (C,2 E,)!>(! A,2 A,!>)! | D,3!p! C,>C,C, |!<(! B,,3!<)! B,,2 D, |!pp!"^dim. al" E,6 | %12
w: ||||
w: ||||
w: ||||
 (!>!A,3 A,2 A,) | A,3 z2 z | E,3"^dim." E,2!pp! E, | !fermata!A,,6 |] %16
w: 1\-3. schlumm- re auch|du,|schlumm- re auch|du.|
w: ||||
w: ||||

